X:1
T:Ah, cruel hateful fortune - Kirbye
T:James Gibb editions
T:#
%%score { 1 | 2 } 3 { 4 | 5 } 6
L:1/8
Q:1/4=100
M:4/4
K:G
V:1 treble nm="Soprano I" snm="S"
V:2 treble 
V:3 treble nm="Alto" snm="A"
V:4 treble-8 nm="Tenor I" snm="T"
V:5 treble-8 
V:6 bass nm="Bass" snm="B"
V:1
 z8 |"^Ah, cruel hateful fortune!" B8 | ^A6 B2 | =c4 B4 | B8 | B8 | z8 | z8 | %8
w: |Ah!|cru- el,|hate- ful|for-|tune!|||
 z4"^George Kirbye\n(1570-1634)" B4 |[M:4/4] ^A6 B2 | ^c4 ^A4 | B8- | B8 | ^c8 | z8 | z8 | z4 B4 | %17
w: Ah!|cru- el,|hate- ful|for\-||tune!|||Now|
 B4 ^A4 | B4 f4 | f8- | f8 | ^d4 z2 =d2 | d4 ^c4 | B4 d2 f2- | f2 e2 d4- | d4 ^c4 | B8- | B8 | %28
w: must I|death im-|por\-||tune, Since|that I|am of all|* my hope|* de-|pri\-||
 ^A8 | z8 | z8 | z4 B4 | B6 ^G2 | (^A2 B4 A2) | B8 | z8 | z4 z2 d2- | d2 ^c2 B2 G2 | F4 E4 | %39
w: ved,|||Nor|but for|sor\- * *|row||had|* my soul sur-|vi- ved,|
 B3 B G2 c2 | B8 | B4 z2 ^G2 | ^G2 G2 A3 G | A2 B2 B2 A2 | B8 | B8 | z8 | z4 z2 F2 | B3 ^c d2 c2 | %49
w: had my soul sur-|vi-|ved. On-|ly this hope doth|rest for my con-|tent-|ment,||That|for- tune, tir'd, will|
 B2 ^c2 ^d2 d2 | e4 B4 | z4 z2 ^c2 | d3 ^c B2 c2 | d2 ^c2 B2 G2 | F8 | F4 z2 F2 | G3 F E2 F2 | %57
w: yield me some a-|mend- ment,|that|for- tune, tir'd, will|yield me some a-|mend-|ment, that|for- tune, tir'd, will|
 G2 A2 B2 c2 | B8 | B8 | z8 | z8 | z4 z2 ^d2 | ^d2 d2 e3 d | e2 f2 f2 e2 | f8 | f8 | z4 z2 B2 | %68
w: yield me some a-|mend-|ment.|||On-|ly this hope doth|rest for my con-|tent-|ment,|That|
 ^A3 B ^c2 B2 | ^A2 B2 ^c2 ^d2 | e8 | e8 | z4 z2 B2 | E3 F G2 F2 | %74
w: for- tune, tir'd, will|yield me some a-|mend-|ment,|that|for- tune, tir'd, will|
[Q:1/4=99] E2[Q:1/4=98] F2[Q:1/4=97] G2[Q:1/4=96] A2 |[Q:1/4=94] B8- |[Q:1/4=91] B8 | %77
w: yield me some a-|mend\-||
[Q:1/4=90] !fermata!B8 |] %78
w: ment.|
V:2
 z8 | z8 | z8 | z8 | z8 | z8 | F8 | G6 F2 | E4 G4 |[M:4/4] F8 | F4 F4 | F6 F2 | G4 F4 | F8 | %14
w: ||||||Ah!|cru- el,|hate- ful|for-|tune! Ah!|cru- el,|hate- ful|for-|
 F4 B4 | B4 ^A4 | B4 d4 | ^c8 | B2 B2 B2 ^c2 | d6 (^cB) | (=A2 B4 ^A2) | B4 z2 B2 | =A4 A4 | %23
w: tune! Now|must I|death im-|por-|tune, now must I|death im\- *|por\- * *|tune, Since|that I|
 F4 B2 A2- | A2 E2 G4- | G2 F2 (F4- | F2 E2 F4- | F4 E4) | F8 | z8 | z8 | z4 f4 | ^d4 e4 | ^c8 | %34
w: am of all|* my hope|* de- pri\-|||ved,|||Nor|but for|sor-|
 B8 | z8 | z8 | A3 A F2 B2 | B4 B2 e2- | e2 d2 c2 e2 | (^d2 e4 d2) | e8 | z8 | z8 | z4 z2 ^d2 | %45
w: row|||had my soul sur-|vi- ved, had|* my soul sur-|vi\- * *|ved.|||On-|
 ^d2 d2 e3 d | e2 f2 f2 e2 | f8 | f8 | z4 z2 B2 | E3 F G2 F2 | E2 F2 ^G2 ^A2 | B8 | B4 z2 B2 | %54
w: ly this hope doth|rest for my con-|tent-|ment,|That|for- tune, tir'd, will|yield me some a-|mend-|ment, that|
 ^A3 B ^c2 B2 | ^A2 B2 ^c2 ^d2 | e8 | e2 d^c (B2 AG | F2 G2 F4) | ^G4 z2 G2 | ^G2 G2 A3 G | %61
w: for- tune, tir'd, will|yield me some a-|mend-|ment, some a- mend\- * *||ment. On-|ly this hope doth|
 A2 B2 B2 A2 | B4 B2 B2 | B2 B2 B3 B | B2 d2 ^c2 B2 | ^c4 c2 c2 | d3 ^c B2 c2 | d2 ^c2 B2 G2 | F8 | %69
w: rest for my con-|tent- ment, on-|ly this hope doth|rest for my con-|tent- ment, That|for- tune, tir'd, will|yield me some a-|mend-|
 F4 z2 F2 | G3 F E2 F2 | G2 A2 B2 c2 | B8 | B4 z2 B2 | B6 E2 | ^D4 E4 | F8 | !fermata!^G8 |] %78
w: ment, that|for- tune, tir'd, will|yield me some a-|mend-|ment, will|yield me|some a-|mend-|ment.|
V:3
 E8 | ^D6 E2 | F4 ^D4 | E8 | E8 | z8 | z4 F4 | E6 D2 | ^C4 B,4 |[M:4/4] F4 F4 | z4 F,4 | B,6 A,2 | %12
w: Ah!|cru- el,|hate- ful|for-|tune!||Ah!|cru- el,|hate- ful|for- tune!|||
w: ||||||||||Ah!|cru- el,|
 G,4 B,4 | F,8 | B,8 | z4 F4 | F8- | F4 ^C4 | D6 ^C2 | B,4 F4 | F8 | F4 z2 F2 | F4 E4 | D4 G2 F2- | %24
w: |||Now|must,|* now|must I|death im-|por-|tune, Since|that I|am of all|
w: hate- ful|for-|tune!||||||||||
 F2 A2 D4- | D4 z2 A,2 | (B,2 ^C2 D4- | D4 ^C2 B,2) | ^C4 z2 F2 | F4 B,4 | E8 | ^D4 B,4 | B,4 E4 | %33
w: * my hope|* de-|pri\- * *||ved, Nor|but for|sor-|row, nor|but for|
w: |||||||||
 F8 | B,4 z2 D2- | D2 D2 B,2 B,2 | ^C4 D4 | z8 | z4 G4- | G2 F2 E2 (A2- | A2 G2) F4 | ^G4 z2 E2 | %42
w: sor-|row had|* my soul sur-|vi- ved,||had|* my soul sur\-|* * vi-|ved. On-|
w: |||||||||
 E2 E2 E3 E | E2 =G2 F2 E2 | ^D4 D2 F2 | F2 F2 G3 F | G2 F2 F2 B,2 | (^C2 D2 C4) | B,8 | z4 F4 | %50
w: ly this hope doth|rest for my con-|tent- ment, on-|ly this hope doth|rest for my con-|tent\- * *|ment,|That|
w: ||||||||
 G3 F E2 F2 | G2 F2 E2 ^C2 | F6 ^C2 | z4 z2 E2 | ^C3 B, ^A,2 B,2 | ^C2 B,2 =A,2 F,2 | B,8 | %57
w: for- tune, tir'd, will|yield me some a-|mend- ment,|that|for- tune, tir'd, will|yield me some a-|mend-|
w: |||||||
 B,4 z4 | z8 | z4 z2 E2 | E2 E2 E3 E | E2 G2 F2 E2 | ^D4 D2 F2 | F2 F2 G3 F | G2 B2 ^A2 B2 | ^A8 | %66
w: ment.||On-|ly this hope doth|rest for my con-|tent- ment, on-|ly this hope doth|rest for my con-|tent-|
w: |||||||||
 B8 | z4 z2 E2 | ^C3 B, ^A,2 B,2 | ^C2 B,2 =A,2 F,2 | B,8 | B,4 z4 | z4 F4 | G3 F E2 F2 | %74
w: ment,|That|for- tune, tir'd, will|yield me some a-|mend-|ment,|that|for- tune, tir'd, will|
w: ||||||||
 G2 F2 E2 ^C2 | (F4 E4- | E4 ^D4) | !fermata!E8 |] %78
w: yield me some a-|mend\- *||ment.|
w: ||||
V:4
 z8 | z8 | z4 f4 | g6 f2 | e4 g4 | f8 | ^c4 z4 | B8 | e6 d2 |[M:4/4][K:treble-8] ^c4 d4 | ^c8 | %11
w: ||Ah!|cru- el,|hate- ful|for-|tune!|Ah!|cru- el,|hate- ful|for-|
 B8 | z8 | z4 f4 | f4 e4 | (f6 e2 | d4) B4 | f4 f4 | z4 f4 | f6 (ed) | ^c2 d2 c4 | B4 z2 B2 | %22
w: tune!||Now|must I|death *|* im-|por- tune,|now|must I *|death im- por-|tune, Since|
 d4 A4 | B4 G2 d2- | d2 ^c2 B4- | B4 A4 | (G4 F4 | G8) | F4 ^A4 | B6 ^G2 | (^A2 B4 A2) | B8 | z8 | %33
w: that I|am of all|* my hope|* de-|pri\- *||ved, Nor|but for|sor\- * *|row||
 z8 | z4 z2 g2- | g2 f2 e2 f2 | f4 f2 f2- | f2 e2 ^d2 e2 | ^d4 e4 | z4 z2 a2 | f2 e2 f4 | %41
w: |had|* my soul sur-|vi- ved, had|* my soul sur-|vi- ved,|my|soul sur- vi-|
 e4 z2 B2 | B2 B2 c3 B | c2 e2 ^d2 e2 | f4 f4 | z2 B2 B2 B2 | B3 =d ^c2 B2 | ^A2 B4 A2 | B4 f4 | %49
w: ved. On-|ly this hope doth|rest for my con-|tent- ment,|on- ly this|hope doth rest for|my con- tent-|ment, That|
 f6 B2 | B4 z4 | z4 z2 f2 | f3 e d2 e2 | f2 e2 f2 B2 | f2 ^c4 d2 | ^c2 f4 f2 | z2 b2 b3 a | %57
w: for- tune,|tir'd,|that|for- tune, tir'd, will|yield me some a-|mend- ment, some|a- mend- ment,|that for- tune,|
 b2 a2 g2 (fe) | ^d2 e2 d4 | e8 | z8 | z8 | z4 z2 B2 | B2 B2 e3 B | e2 B2 f2 g2 | f4 f2 f2 | %66
w: tir'd, will yield me *|some a- mend-|ment.|||On-|ly this hope doth|rest for my con-|tent- ment, That|
 f3 e d2 e2 | f2 e2 f2 B2 | f2 ^c4 d2 | ^c2 f4 f2 | z2 b2 b3 a | b2 a2 g2 (fe) | ^d2 e4 d2 | %73
w: for- tune, tir'd, will|yield me some a-|mend- ment, some|a- mend- ment,|that for- tune,|tir'd, will yield me *|some a- mend-|
 e4 z2 B2 | B3 A B2 ^c2 | ^d2 B2 B2 E2 | B8 | !fermata!B8 |] %78
w: ment, that|for- tune, tir'd, will|yield me some a-|mend-|ment.|
V:5
 z8 | z8 | z8 | z4 E4- | E4 B4- | B4 B4 | A4 B4- | B4 G4- | G4 E4 |[M:4/4][K:treble-8] z8 | %10
w: |||Ah!|* cru\-|* el,|hate- ful|* for\-|* tune!||
 z4 ^c4 | d6 ^c2 | B4 d4 | ^c8 | ^d4 B4 | =d4 ^c4 | B4 B4 | F8 | B4 z2 F2 | F6 G2 | A2 D2 F4 | F8 | %22
w: Ah!|cru- el,|hate- ful|for-|tune! Now|must I|death im-|por-|tune, now|must I|death im- por-|tune,|
 z8 | z8 | z8 | z8 | z8 | z8 | z4 ^c4 | F4 ^G4 | E8 | F8 | z8 | z8 | z4 z2 B2- | B2 A2 G2 B2 | %36
w: ||||||Nor|but for|sor-|row|||had|* my soul sur-|
 ^A4 B2 d2- | d2 A2 B2 E2 | B4 E4 | z2 B2 E2 E2 | B8 | B4 z2 E2 | E2 E2 A3 E | A2 E2 B2 c2 | %44
w: vi- ved, had|* my soul sur-|vi- ved,|my soul sur-|viv-|ved. On-|ly this hope doth|rest for my con-|
 B4 B4 | z8 | z8 | z4 z2 ^c2 | d3 ^c B2 c2 | d2 ^c2 B2 B2 | B8 | B4 z2 ^c2 | B6 E2 | B8 | z8 | %55
w: tent- ment,|||That|for- tune, tir'd, will|yield me some a-|mend-|ment, that|for- tune,|tir'd,||
 z4 z2 F2 | E3 F G2 F2 | E2 F2 G2 A2 | B8 | E4 z2 B2 | B2 B2 c3 B | c2 e2 ^d2 e2 | f4 f4 | z8 | %64
w: that|for- tune, tir'd, will|yield me some a-|mend-|ment. On-|ly this hope doth|rest for my con-|tent- ment,||
 z8 | z4 z2 ^c2 | B6 E2 | B8 | z8 | z4 z2 F2 | E3 F G2 F2 | E2 F2 G2 A2 | B8 | B8 | z2 B2 G2 E2 | %75
w: |That|for- tune,|tir'd,||that|for- tune, tir'd, will|yield me some a-|mend-|ment,|will yield me|
 F4 G4 | F8 | !fermata!E8 |] %78
w: some a-|mend-|ment.|
V:6
 z8 | z8 | z8 | z8 | z4 E,4 | ^D,6 E,2 | F,4 ^D,4 | E,8- | E,8 |[M:4/4] F,8- | F,8 | z8 | z4 B,4 | %13
w: ||||Ah!|cru- el,|hate- ful|for\-||tune!|||Now|
 B,4 ^A,4 | B,4 G,4 | F,8 | B,,8 | z8 | z4 B,,4 | B,,2 ^C,2 D,2 E,2 | F,8 | B,,8 | z8 | z8 | z8 | %25
w: must I|death im-|por-|tune,||now|must I death im-|por-|tune,||||
 z8 | z8 | z8 | z4 F,4 | ^D,4 E,4 | ^C,8 | B,,8 | z8 | z8 | z4 z2 G,2- | G,2 D,2 E,2 B,,2 | %36
w: |||Nor|but for|sor-|row|||had|* my soul sur-|
 F,4 B,,4 | z8 | z4 z2 E,2- | E,2 B,,2 C,2 A,,2 | B,,8 | E,8 | z8 | z8 | z4 z2 B,,2 | %45
w: vi- ved,||had|* my soul sur-|vi-|ved.|||On-|
 B,,2 B,,2 E,3 B,, | E,2 B,,2 F,2 G,2 | F,8 | B,,8- | B,,4 B,,4 | E,6 ^D,2 | E,4 z2 F,2 | %52
w: ly this hope doth|rest for my con-|tent-|ment,|* That|for- tune,|tir'd, that|
 B,,3 ^C, D,2 C,2 | B,,2 ^C,2 D,2 E,2 | F,8 | F,8 | z8 | z8 | z8 | z4 z2 E,2 | E,2 E,2 A,3 E, | %61
w: for- tune, tir'd, will|yield me some a-|mend-|ment,||||On-|ly this hope doth|
 A,2 E,2 B,2 C2 | B,4 B,4 | z8 | z8 | z4 z2 F,2 | B,,3 ^C, D,2 C,2 | B,,2 ^C,2 D,2 E,2 | F,8 | %69
w: rest for my con-|tent- ment,|||That|for- tune, tir'd, will|yield me some a-|mend-|
 F,8 | z8 | z8 | z4 B,,4 | E,6 ^D,2 | E,4 E,4 | B,,8- | B,,8 | !fermata!E,8 |] %78
w: ment,|||will|yield me|some a-|mend\-||ment.|

